X:0827
T:The bonny gray eye'd morn.
M:C
L:1/8
Q:1/4=100
I: || ||
Z:Jack Campin * www.campin.me.uk * 2009
K:D
A|dcde {de}f2ed|fgab a3b|a>baf gfed  |cdef  e3  
f|gfed     c3 c|dcBA G3E|AcBd  cefd  |dcB>A A3||
e|ecec     A3 a|afaf d3f|gBec (B2^A)f|edcB  B2z
F|BcdB     g3 f|fBed c3A|dfeg  faba  |gfe>d d3|]
<end>
<start>
